svg/u1f97c.svg

<svg viewBox="0 0 128 128" xmlns="http://www.w3.org/2000/svg">
  <g>
    <path d="M83.98,20.28c0,0-10.34-13.77-20.89-13.77S43.27,20.28,43.27,20.28l-1.07,97.3 c0,0,20.72,3.41,45.65-0.02C92.39,116.94,83.86,17.63,83.98,20.28z" fill="#5995B3"/>
    <path d="M102.07,37.87c-5.01-14.71-10.49-16.81-10.49-16.81l-10.4-6.76c-4.29-4.41-7.71-8.43-12-9.67 L56.87,4.65c-1.7,0.04-5.23,3.73-5.23,3.73l-3.59,4.75l-11.37,8.02c0,0-7.88,4.09-12.14,16.72C17.83,57.76,9.92,99.35,9.92,99.35 c1.31,1.32,9.29,4.27,13.88,4.65c0,0,6.6-26.66,12.3-44.84c0.42,12.41-3.52,59.28-3.52,59.28s13.07,5.32,29.28,3.29 c0,0,1.1-39.36,0.35-54.92c-0.8-16.7-2.47-25.7-2.47-25.7c-2.18-10.35-5.6-25.38-4.72-29.58C56.21,5.81,70,7.04,71.23,10.8 c2.22,8-5.52,28.9-5.48,46.43c0.04,13.16,0,64.26,0,64.26c14.55,1.78,28.43-3.06,28.43-3.06s-2.39-52.05-2.45-59.01 c3.91,16,13.05,45.19,13.05,45.19c4.56-1.09,12.35-4.07,13.26-6.08C118.04,98.54,108.85,57.74,102.07,37.87z" fill="#FFFFFF"/>
    <path d="M73.72,9.38C73.72,6.18,71.1,4,63.09,4c-6.25,0-8.35,1.2-9.2,2.53c-2.83,4.44,0.17,6.28,2.42,17.75 c0,0-0.78-6.35-0.39-9.47c0.51-4.02,15.31-4.02,15.18-0.67c-0.08,1.99-1.21,13.28-1.21,13.28C72.55,17.61,73.72,13.82,73.72,9.38z" fill="#B7D5E5"/>
    <path d="M33.07,46.73c-3.01-3.09-3.95-7.76-3.86-10.35c0.03-0.87,0.27-4.07,1.16-4.55 c0.94-0.5,1.05,1.33,1.04,1.92C31.31,37.04,32.4,43.48,33.07,46.73z" fill="#B7D5E5"/>
    <circle cx="57.66" cy="60.58" r="2.23" fill="#B7D5E5"/>
    <circle cx="57.66" cy="91.07" r="2.23" fill="#B7D5E5"/>
    <circle cx="57.11" cy="106.85" r="2.23" fill="#B7D5E5"/>
    <circle cx="57.66" cy="76" r="2.23" fill="#B7D5E5"/>
    <path d="M9.76,99.23c0,0,7.12-36.66,9.69-47.52c1.52-6.41,3.32-12.22,4.92-16.46 c1.59-4.2,2.29-5.31,5.23-9.06C34.04,20.56,45.69,14.94,47.95,12s1.22-0.11-0.35,2.27s-13.06,8.95-16.47,13.16 c-0.81,1-2.75,3.58-4.33,7.44c-2.04,4.98-3.76,11.37-4.98,17.6c0,0-10.15,46.7-10.23,47.29L9.76,99.23z" fill="#B7D5E5"/>
    <path d="M47.12,13.19c2.96-4.5,5.68-5.7,5.68-5.7c-2.72,3.3-7.39,13.03-7.39,13.03l7.77,0.61l-4.5,7.14 c1.25,2,10.23,18.04,11.21,23.44c0,0-7.15-13.96-13.15-21.37c-1.23-1.52-1.09-2.44-0.65-3.01l3.52-4.48l-4.6-0.36 c-1.21-0.09-1.96-1.35-1.47-2.45C44.03,18.91,44.92,16.55,47.12,13.19z" fill="#B7D5E5"/>
    <path d="M80.47,13.19c-3.64-5.37-8.83-7.55-8.83-7.55c6.64,4.85,10.54,14.88,10.54,14.88l-7.77,0.61 l4.74,7.37c-1.25,2-7.03,12.09-10.39,22.87c0,0,6.31-11.26,11.88-20.77c1.23-2.09,1.3-2.7,0.85-3.26l-3.52-4.48l4.6-0.36 c1.21-0.09,1.96-1.35,1.47-2.45C83.56,18.91,82.72,16.52,80.47,13.19z" fill="#B7D5E5"/>
    <path d="M62.32,83.25l-1.53,36.81c-0.02,0.38-0.33,0.69-0.71,0.71c-14.35,0.67-22.38-2.32-25.95-3.64 c0.38-3.41,4.16-50.18,3.79-63.42c-0.43-15.6-0.55-18.64-2.75-26.35c-0.29,1.21,0.36,9.6,0.37,16.49c0,5.68-0.58,9.69-1.17,13.47 c-1.31,8.37-12.83,46.17-12.95,46.47l2.76,1.02c0.09-0.24,6.39-20.52,11.21-41.01c0,0-3.76,48.57-4.37,53.71 c-0.09,0.78,0.33,1.53,1.06,1.84c11.99,5.09,25.65,4.77,29.64,4.55c0.65-0.04,1.16-0.56,1.17-1.21 C63,116.71,62.84,89.44,62.32,83.25z" fill="#B7D5E5"/>
    <path d="M107.16,55.44c-2.11-8.21-3.13-20.06-10.77-31.21c-2.92-4.26-12.79-8.97-16.62-12.39 c-1.64-1.46,0.31,1.88,1.87,3.35c4.52,4.25,10.15,6.11,13.25,10.31c4.94,6.7,8.16,20.78,10.36,30.72 c3.62,16.35,11.7,42.87,11.79,43.19l1.89-0.53C118.94,98.87,110.28,67.59,107.16,55.44z" fill="#B7D5E5"/>
    <path d="M93.45,32.19c-5.28,27.49-1.13,76.01-0.82,84.6c-5.6,1.75-14.96,3.68-25.37,3.76 c-0.29,0-0.53-0.23-0.53-0.52c0-8.37,0.01-50,0.01-58.7c-0.01-9.5,0.54-20.03,0.54-20.03s-1.59,8.1-1.59,17.74 c0.01,8.88-0.78,55.81-0.91,63.51c-0.01,0.59,0.46,1.07,1.05,1.07h3.9c12.41,0,22.65-3.24,25.27-4.14c0.39-0.13,0.64-0.5,0.62-0.91 c-0.28-5.79-2.27-46.67-2.28-46.96c0-0.08,7.7,26.15,11.09,33.08l2.73-1.12c-4.35-11.21-9.99-29.18-13.62-45.31 C94.52,37.02,93.45,32.19,93.45,32.19z" fill="#B7D5E5"/>
    <path d="M118.07,100.35c0.85-0.69,1.18-1.18,0.86-1.48c-0.19-0.18-0.89-0.3-2.32,0.07 c-3.75,0.98-6.14,1.86-9.71,3.54c-0.4,0.19-2.28,1.33-2.46,1.74c-0.78,1.76,4.72-0.02,5.45-0.27 C112.16,103.19,116.22,101.85,118.07,100.35z" fill="#5995B3"/>
    <path d="M87.2,89.74v13.78c0,0.33-0.2,0.61-0.51,0.72c-1.8,0.67-5.41,1.79-9.29,1.79 c-0.51,0-0.93-0.43-0.93-0.96V90.54c0.94,0.13,2.09,0.24,3.39,0.24c1.06,0,2.12-0.07,3.15-0.21 C84.21,90.41,85.73,90.21,87.2,89.74 M89.2,86.4c-1.58,1.53-4.4,1.92-6.46,2.2c-1.02,0.14-1.99,0.19-2.89,0.19 c-3.21,0-5.39-0.7-5.39-0.7v16.97c0,1.62,1.31,2.96,2.93,2.96c0.01,0,0.03,0,0.04,0c4.07,0,7.82-1.13,9.95-1.91 c1.09-0.4,1.81-1.44,1.81-2.6V86.4L89.2,86.4z" fill="#B7D5E5"/>
    <path d="M39.91,89.31c1.57,0.77,3.01,1.25,4.35,1.46c0.96,0.14,2,0.22,3.08,0.22 c1.38,0,2.67-0.12,3.71-0.26l-0.38,13.9c-0.02,0.86-0.73,1.53-1.65,1.53c0,0,0,0,0,0c-3.25-0.08-6.36-0.88-8.39-1.54 c-0.74-0.24-1.24-0.96-1.21-1.74L39.91,89.31 M38.03,85.92l-0.6,16.89c-0.06,1.68,0.99,3.2,2.59,3.72 c2.19,0.71,5.47,1.54,8.95,1.63c0.03,0,0.06,0,0.1,0c1.94,0,3.55-1.53,3.6-3.48l0.45-16.37c0,0-2.63,0.67-5.78,0.67 c-0.9,0-1.84-0.05-2.78-0.19C42.17,88.43,39.7,87,38.03,85.92L38.03,85.92z" fill="#B7D5E5"/>
    <path d="M38.35,86.13c4.08,2.92,8.54,3.51,14.47,2.38" fill="#5995B3"/>
    <path d="M74.47,88.09c4.99,1.6,14.28,0.06,14.73-1.69L74.47,88.09z" fill="#5995B3"/>
    <path d="M85.8,50.41l-0.42,11.29c-0.01,0.21-0.15,0.39-0.34,0.44c-1.32,0.31-3.38,0.72-5.88,0.72 c-0.72,0-1.45-0.04-2.16-0.1c-0.52-0.05-0.52-0.14-0.52-0.48V51.09c0.79,0.12,1.74,0.21,2.83,0.21C81.37,51.3,83.54,51,85.8,50.41 M87.9,47.66c-3.53,1.27-6.42,1.65-8.6,1.65c-3.15,0-4.83-0.79-4.83-0.79v13.75c0,1.31,0.72,2.32,2.33,2.47 c0.82,0.08,1.61,0.11,2.36,0.11c2.69,0,4.9-0.44,6.34-0.77c1.08-0.25,1.85-1.21,1.89-2.31L87.9,47.66L87.9,47.66z" fill="#B7D5E5"/>
    <path d="M74.47,48.52c2.04,1.74,12.97,0.89,13.43-0.86" fill="#5995B3"/>
    <path d="M10.62,100.35c-0.85-0.69-1.18-1.18-0.86-1.48c0.19-0.18,0.89-0.3,2.32,0.07 c3.75,0.98,6.14,1.86,9.71,3.54c0.4,0.19,2.28,1.33,2.46,1.74c0.78,1.76-4.72-0.02-5.45-0.27 C16.54,103.19,12.48,101.85,10.62,100.35z" fill="#5995B3"/>
  </g>
</svg>

<svg viewBox="0 0 128 128" xmlns="http://www.w3.org/2000/svg">
  <defs/>
  <path d="M83.98,20.28 C83.98,20.28 73.64,6.51 63.09,6.51 C52.54,6.51 43.27,20.28 43.27,20.28 L42.2,117.58 C42.2,117.58 62.92,120.99 87.85,117.56 C92.39,116.94 83.86,17.63 83.98,20.28 Z" fill="#5995B3"/>
  <path d="M102.07,37.87 C97.06,23.16 91.58,21.06 91.58,21.06 L81.18,14.3 C76.89,9.89 73.47,5.87 69.18,4.63 L56.87,4.65 C55.17,4.69 51.64,8.38 51.64,8.38 L48.05,13.13 L36.68,21.15 C36.68,21.15 28.8,25.24 24.54,37.87 C17.83,57.76 9.92,99.35 9.92,99.35 C11.23,100.67 19.21,103.62 23.8,104 C23.8,104 30.4,77.34 36.1,59.16 C36.52,71.57 32.58,118.44 32.58,118.44 C32.58,118.44 45.65,123.76 61.86,121.73 C61.86,121.73 62.96,82.37 62.21,66.81 C61.41,50.11 59.74,41.11 59.74,41.11 C57.56,30.76 54.14,15.73 55.02,11.53 C56.21,5.81 70,7.04 71.23,10.8 C73.45,18.8 65.71,39.7 65.75,57.23 C65.79,70.39 65.75,121.49 65.75,121.49 C80.3,123.27 94.18,118.43 94.18,118.43 C94.18,118.43 91.79,66.38 91.73,59.42 C95.64,75.42 104.78,104.61 104.78,104.61 C109.34,103.52 117.13,100.54 118.04,98.53 C118.04,98.54 108.85,57.74 102.07,37.87 Z" fill="#FFFFFF"/>
  <path d="M73.72,9.38 C73.72,6.18 71.1,4 63.09,4 C56.84,4 54.74,5.2 53.89,6.53 C51.06,10.97 54.06,12.81 56.31,24.28 C56.31,24.28 55.53,17.93 55.92,14.81 C56.43,10.79 71.23,10.79 71.1,14.14 C71.02,16.13 69.89,27.42 69.89,27.42 C72.55,17.61 73.72,13.82 73.72,9.38 Z" fill="#B7D5E5"/>
  <path d="M33.07,46.73 C30.06,43.64 29.12,38.97 29.21,36.38 C29.24,35.51 29.48,32.31 30.37,31.83 C31.31,31.33 31.42,33.16 31.41,33.75 C31.31,37.04 32.4,43.48 33.07,46.73 Z" fill="#B7D5E5"/>
  <path d="M59.89,60.58 A2.23 2.23 0 1 1 55.43,60.58 A2.23 2.23 0 1 1 59.89,60.58 Z" fill="#B7D5E5"/>
  <path d="M59.89,91.07 A2.23 2.23 0 1 1 55.43,91.07 A2.23 2.23 0 1 1 59.89,91.07 Z" fill="#B7D5E5"/>
  <path d="M59.34,106.85 A2.23 2.23 0 1 1 54.88,106.85 A2.23 2.23 0 1 1 59.34,106.85 Z" fill="#B7D5E5"/>
  <path d="M59.89,76 A2.23 2.23 0 1 1 55.43,76 A2.23 2.23 0 1 1 59.89,76 Z" fill="#B7D5E5"/>
  <path d="M9.76,99.23 C9.76,99.23 16.88,62.57 19.45,51.71 C20.97,45.3 22.77,39.49 24.37,35.25 C25.96,31.05 26.66,29.94 29.6,26.19 C34.04,20.56 45.69,14.94 47.95,12 C50.21,9.06 49.17,11.89 47.6,14.27 C46.03,16.65 34.54,23.22 31.13,27.43 C30.32,28.43 28.38,31.01 26.8,34.87 C24.76,39.85 23.04,46.24 21.82,52.47 C21.82,52.47 11.67,99.17 11.59,99.76 L9.76,99.23 Z" fill="#B7D5E5"/>
  <path d="M47.12,13.19 C50.08,8.69 52.8,7.49 52.8,7.49 C50.08,10.79 45.41,20.52 45.41,20.52 L53.18,21.13 L48.68,28.27 C49.93,30.27 58.91,46.31 59.89,51.71 C59.89,51.71 52.74,37.75 46.74,30.34 C45.51,28.82 45.65,27.9 46.09,27.33 L49.61,22.85 L45.01,22.49 C43.8,22.4 43.05,21.14 43.54,20.04 C44.03,18.91 44.92,16.55 47.12,13.19 Z" fill="#B7D5E5"/>
  <path d="M80.47,13.19 C76.83,7.82 71.64,5.64 71.64,5.64 C78.28,10.49 82.18,20.52 82.18,20.52 L74.41,21.13 L79.15,28.5 C77.9,30.5 72.12,40.59 68.76,51.37 C68.76,51.37 75.07,40.11 80.64,30.6 C81.87,28.51 81.94,27.9 81.49,27.34 L77.97,22.86 L82.57,22.5 C83.78,22.41 84.53,21.15 84.04,20.05 C83.56,18.91 82.72,16.52 80.47,13.19 Z" fill="#B7D5E5"/>
  <path d="M62.32,83.25 L60.79,120.06 C60.77,120.44 60.46,120.75 60.08,120.77 C45.73,121.44 37.7,118.45 34.13,117.13 C34.51,113.72 38.29,66.95 37.92,53.71 C37.49,38.11 37.37,35.07 35.17,27.36 C34.88,28.57 35.53,36.96 35.54,43.85 C35.54,49.53 34.96,53.54 34.37,57.32 C33.06,65.69 21.54,103.49 21.42,103.79 L24.18,104.81 C24.27,104.57 30.57,84.29 35.39,63.8 C35.39,63.8 31.63,112.37 31.02,117.51 C30.93,118.29 31.35,119.04 32.08,119.35 C44.07,124.44 57.73,124.12 61.72,123.9 C62.37,123.86 62.88,123.34 62.89,122.69 C63,116.71 62.84,89.44 62.32,83.25 Z" fill="#B7D5E5"/>
  <path d="M107.16,55.44 C105.05,47.23 104.03,35.38 96.39,24.23 C93.47,19.97 83.6,15.26 79.77,11.84 C78.13,10.38 80.08,13.72 81.64,15.19 C86.16,19.44 91.79,21.3 94.89,25.5 C99.83,32.2 103.05,46.28 105.25,56.22 C108.87,72.57 116.95,99.09 117.04,99.41 L118.93,98.88 C118.94,98.87 110.28,67.59 107.16,55.44 Z" fill="#B7D5E5"/>
  <path d="M93.45,32.19 C88.17,59.68 92.32,108.2 92.63,116.79 C87.03,118.54 77.67,120.47 67.26,120.55 C66.97,120.55 66.73,120.32 66.73,120.03 C66.73,111.66 66.74,70.03 66.74,61.33 C66.73,51.83 67.28,41.3 67.28,41.3 C67.28,41.3 65.69,49.4 65.69,59.04 C65.7,67.92 64.91,114.85 64.78,122.55 C64.77,123.14 65.24,123.62 65.83,123.62 L69.73,123.62 C82.14,123.62 92.38,120.38 95,119.48 C95.39,119.35 95.64,118.98 95.62,118.57 C95.34,112.78 93.35,71.9 93.34,71.61 C93.34,71.53 101.04,97.76 104.43,104.69 L107.16,103.57 C102.81,92.36 97.17,74.39 93.54,58.26 C94.52,37.02 93.45,32.19 93.45,32.19 Z" fill="#B7D5E5"/>
  <path d="M118.07,100.35 C118.92,99.66 119.25,99.17 118.93,98.87 C118.74,98.69 118.04,98.57 116.61,98.94 C112.86,99.92 110.47,100.8 106.9,102.48 C106.5,102.67 104.62,103.81 104.44,104.22 C103.66,105.98 109.16,104.2 109.89,103.95 C112.16,103.19 116.22,101.85 118.07,100.35 Z" fill="#5995B3"/>
  <path d="M87.2,89.74 L87.2,103.52 C87.2,103.85 87,104.13 86.69,104.24 C84.89,104.91 81.28,106.03 77.4,106.03 C76.89,106.03 76.47,105.6 76.47,105.07 L76.47,90.54 C77.41,90.67 78.56,90.78 79.86,90.78 C80.92,90.78 81.98,90.71 83.01,90.57 C84.21,90.41 85.73,90.21 87.2,89.74 M89.2,86.4 C87.62,87.93 84.8,88.32 82.74,88.6 C81.72,88.74 80.75,88.79 79.85,88.79 C76.64,88.79 74.46,88.09 74.46,88.09 L74.46,105.06 C74.46,106.68 75.77,108.02 77.39,108.02 C77.4,108.02 77.42,108.02 77.43,108.02 C81.5,108.02 85.25,106.89 87.38,106.11 C88.47,105.71 89.19,104.67 89.19,103.51 L89.19,86.4 L89.2,86.4 Z" fill="#B7D5E5"/>
  <path d="M39.91,89.31 C41.48,90.08 42.92,90.56 44.26,90.77 C45.22,90.91 46.26,90.99 47.34,90.99 C48.72,90.99 50.01,90.87 51.05,90.73 L50.67,104.63 C50.65,105.49 49.94,106.16 49.02,106.16 C49.02,106.16 49.02,106.16 49.02,106.16 C45.77,106.08 42.66,105.28 40.63,104.62 C39.89,104.38 39.39,103.66 39.42,102.88 L39.91,89.31 M38.03,85.92 L37.43,102.81 C37.37,104.49 38.42,106.01 40.02,106.53 C42.21,107.24 45.49,108.07 48.97,108.16 C49,108.16 49.03,108.16 49.07,108.16 C51.01,108.16 52.62,106.63 52.67,104.68 L53.12,88.31 C53.12,88.31 50.49,88.98 47.34,88.98 C46.44,88.98 45.5,88.93 44.56,88.79 C42.17,88.43 39.7,87 38.03,85.92 L38.03,85.92 Z" fill="#B7D5E5"/>
  <path d="M38.35,86.13 C42.43,89.05 46.89,89.64 52.82,88.51" fill="#5995B3"/>
  <path d="M74.47,88.09 C79.46,89.69 88.75,88.15 89.2,86.4 L74.47,88.09 Z" fill="#5995B3"/>
  <path d="M85.8,50.41 L85.38,61.7 C85.37,61.91 85.23,62.09 85.04,62.14 C83.72,62.45 81.66,62.86 79.16,62.86 C78.44,62.86 77.71,62.82 77,62.76 C76.48,62.71 76.48,62.62 76.48,62.28 L76.48,51.09 C77.27,51.21 78.22,51.3 79.31,51.3 C81.37,51.3 83.54,51 85.8,50.41 M87.9,47.66 C84.37,48.93 81.48,49.31 79.3,49.31 C76.15,49.31 74.47,48.52 74.47,48.52 L74.47,62.27 C74.47,63.58 75.19,64.59 76.8,64.74 C77.62,64.82 78.41,64.85 79.16,64.85 C81.85,64.85 84.06,64.41 85.5,64.08 C86.58,63.83 87.35,62.87 87.39,61.77 L87.9,47.66 L87.9,47.66 Z" fill="#B7D5E5"/>
  <path d="M74.47,48.52 C76.51,50.26 87.44,49.41 87.9,47.66" fill="#5995B3"/>
  <path d="M10.62,100.35 C9.77,99.66 9.44,99.17 9.76,98.87 C9.95,98.69 10.65,98.57 12.08,98.94 C15.83,99.92 18.22,100.8 21.79,102.48 C22.19,102.67 24.07,103.81 24.25,104.22 C25.03,105.98 19.53,104.2 18.8,103.95 C16.54,103.19 12.48,101.85 10.62,100.35 Z" fill="#5995B3"/>
</svg>
